X:1
T:[ID 2-77]
T:[ID 2-77]
T:Bezeichnung standardisiert: Mourqui Mourqui
T:Urheber unbekannt Datum in der hier transkribierten schriftlichen Quelle: 1767
C:Urheber unbekannt
C:Datum in der hier transkribierten schriftlichen Quelle: 1767
L:1/8
M:4/4
K:A
V:1 treble 
V:1
 cd | e2 c2 A2 a2 | e2 c2 A2 a2 | fdcd fdcd | e2 c2 A2 a2 | fdcd fdcd | e2 c2 A2 c2"^1)" |: x8 | %8
 BEBE cEcE | dEdE cEcE | BEBE cEcE | dEdE c2 ed | cagf edcB | A4 z2 :: cd | e2 c2 A2 a2 | %16
 e2 c2 A2 ag | f2 g2 agfe | ^defd B2 g2 | fBfB gBgB | aBaB gBgB | fBfB gBgB | aBaB g2 ba | %23
 gfef B2 ^d2 |{^d} e6!D.C.! || %25

